react/src/icons/simple_mic.svg

<svg width="24" height="24" viewBox="0 0 24 24" fill="none" xmlns="http://www.w3.org/2000/svg">
<path fill-rule="evenodd" clip-rule="evenodd" d="M12 3C10.3431 3 9 4.34315 9 6V12C9 13.6569 10.3431 15 12 15C13.6569 15 15 13.6569 15 12V6C15 4.34315 13.6569 3 12 3ZM7.5 12C7.5 11.5858 7.16421 11.25 6.75 11.25C6.33579 11.25 6 11.5858 6 12C6 13.9175 6.62158 15.4436 7.73826 16.4858C8.67527 17.3603 9.90114 17.8386 11.25 17.9654V20.25C11.25 20.6642 11.5858 21 12 21C12.4142 21 12.75 20.6642 12.75 20.25V17.9654C14.0989 17.8386 15.3247 17.3603 16.2617 16.4858C17.3784 15.4436 18 13.9175 18 12C18 11.5858 17.6642 11.25 17.25 11.25C16.8358 11.25 16.5 11.5858 16.5 12C16.5 13.5825 15.9966 14.6814 15.2383 15.3892C14.4713 16.105 13.3583 16.5 12 16.5C10.6417 16.5 9.52867 16.105 8.76174 15.3892C8.00342 14.6814 7.5 13.5825 7.5 12Z" fill="#00A981"/>
</svg>

<?xml version="1.0" encoding="utf-8"?>
<!-- Generator: Adobe Illustrator 25.4.1, SVG Export Plug-In . SVG Version: 6.00 Build 0)  -->
<svg version="1.1" id="Layer_1" xmlns="http://www.w3.org/2000/svg" xmlns:xlink="http://www.w3.org/1999/xlink" x="0px" y="0px"
	 viewBox="0 0 24 24" style="enable-background:new 0 0 24 24;" xml:space="preserve">
<style type="text/css">
	.st0{fill-rule:evenodd;clip-rule:evenodd;fill:#1863AD;}
</style>
<path class="st0" d="M12,3c-1.7,0-3,1.3-3,3v6c0,1.7,1.3,3,3,3s3-1.3,3-3V6C15,4.3,13.7,3,12,3z M7.5,12c0-0.4-0.3-0.8-0.8-0.8
	S6,11.6,6,12c0,1.9,0.6,3.4,1.7,4.5c0.9,0.9,2.2,1.4,3.5,1.5v2.3c0,0.4,0.3,0.8,0.8,0.8s0.8-0.3,0.8-0.8V18c1.3-0.1,2.6-0.6,3.5-1.5
	c1.1-1,1.7-2.6,1.7-4.5c0-0.4-0.3-0.8-0.8-0.8s-0.8,0.3-0.8,0.8c0,1.6-0.5,2.7-1.3,3.4c-0.8,0.7-1.9,1.1-3.2,1.1s-2.5-0.4-3.2-1.1
	C8,14.7,7.5,13.6,7.5,12z"/>
</svg>
